X:1
T:Psalm 146
T:V 7
L:1/4
M:14/4
I:linebreak $
K:C
V:1 treble nm="Pipe Organ" snm="Org."
V:1
 B2 c2 B G A G ^F2 E3 z |$[M:12/4] E2 G2 ^F E E _E E3 z |$[M:14/4] G2 E2 G A B G c2 B3 z |$ %3
w: Dis die HEER wat vreem- de- lin- ge|met 'n wa- ken- de\_oog- aan- skou,|we- du- wees in twis- ge- din- ge,|
[M:12/4] B2 c2 B A A ^G A3 z |$ A2 B2 G E G ^F E3 z |$ E2 G2 E A A ^G A4 |] %6
w: met hul we- se, staan- de hou.|Maar sy arm, hul steun en hoop,|stuit die bo- se in sy loop.|

